X: 3695
T: Billy On The High Ground
R: hornpipe
M: 4/4
K: Dmajor
|:(3ABc|d>A (3aaa a>gf>e|d>e (3fed B2 e>f|g>A (3ggg g>fe>d|c>ea>e c2 (3efg|
a>f (3aaa a2 (3gfe|d2 (3fed B2 e>f|g>e (3ggg g2 (3fed|c>ea>e d2:|
|:(3BAG|F2 d>A F>A d2|G2 d>B G2 d>B|c2 a>e c>e a2|d>fa>f (3gfe (3cBA|
(3FGA d>A F>DF>d|(3GAB d>B G>DG>d|c>eA>e c>ea>A|(3ded c2 d2:|

